dealnox/img/icon-calendar.svg

<svg width="23" height="26" viewBox="0 0 23 26" fill="none" xmlns="http://www.w3.org/2000/svg">
<g clip-path="url(#clip0_216_2109)">
<path d="M21.4332 26H1.56361C1.35249 25.9298 1.14661 25.8443 0.947554 25.7441C0.295551 25.3551 -0.000995961 24.762 2.51266e-06 23.9941C2.51266e-06 17.2436 2.51266e-06 10.4921 2.51266e-06 3.73953C2.51266e-06 3.67148 2.51266e-06 3.60445 2.51266e-06 3.5364C0.0469308 2.81734 0.388408 2.27296 1.01545 1.9632C1.3192 1.83046 1.64459 1.75642 1.97498 1.74485C2.46024 1.7093 2.95049 1.7357 3.45073 1.7357C3.45897 1.65202 3.46231 1.56791 3.46071 1.48383C3.4028 0.766795 3.67039 0.254922 4.35235 0H5.00136C5.83908 0.271172 5.99184 0.931328 5.89998 1.72656H17.0799C17.0799 1.60469 17.0799 1.49703 17.0799 1.39038C17.079 1.20506 17.0953 1.02007 17.1288 0.837891C17.2436 0.385938 17.5781 0.151333 17.9885 0.00508308H18.6375C19.4523 0.297583 19.612 0.95672 19.5152 1.74078C20.0693 1.74078 20.5676 1.74078 21.0658 1.74078C21.5629 1.72861 22.0447 1.91617 22.4067 2.26282C22.8451 2.68532 23.0058 3.21344 22.9998 3.81976C22.9938 10.5229 22.9938 17.224 22.9998 23.9231C22.9998 24.0155 22.9998 24.1089 22.9938 24.2013C22.9748 24.5832 22.8419 24.95 22.6129 25.2532C22.3839 25.5563 22.0696 25.7814 21.7118 25.8984C21.6189 25.933 21.5271 25.9675 21.4332 26ZM0.764834 7.94422C0.757844 8.04578 0.750855 8.10062 0.750855 8.15953C0.750855 12.9411 0.750855 17.7227 0.750855 22.5042C0.750855 23.2517 1.22014 23.7138 1.962 23.7138H16.341C16.9541 23.7138 17.2906 23.3655 17.2916 22.7337C17.2916 21.9639 17.2916 21.193 17.2916 20.4232C17.2916 19.3558 17.9526 18.6804 19.0049 18.6743C19.7448 18.6743 20.4857 18.6743 21.2265 18.6743C21.9315 18.6743 22.247 18.3554 22.247 17.6373C22.247 14.5058 22.247 11.3743 22.247 8.24282V7.94422H6.57096C6.45456 7.94846 6.33802 7.94303 6.22249 7.92797C6.13759 7.91876 6.05935 7.87696 6.00369 7.8111C5.94804 7.74524 5.91916 7.66027 5.92295 7.57351C5.91478 7.48754 5.93915 7.40165 5.9911 7.33333C6.04305 7.26501 6.11866 7.21942 6.20252 7.20585C6.31731 7.18653 6.43375 7.17939 6.54999 7.18453H22.232C22.237 7.08297 22.245 7.00375 22.245 6.92961C22.245 5.87133 22.245 4.81406 22.245 3.75578C22.245 2.95953 21.7867 2.50148 20.9979 2.50047C20.0244 2.50047 19.0509 2.50047 18.0774 2.50047C17.9985 2.50047 17.9196 2.50758 17.8258 2.51164C17.8258 2.85594 17.8258 3.16774 17.8258 3.48055C17.8258 3.8736 17.8757 3.93352 18.2611 4.02391C18.357 4.03877 18.4436 4.09042 18.5032 4.16824C18.5628 4.24606 18.5909 4.34414 18.5816 4.44234C18.5696 4.53939 18.5215 4.62808 18.4472 4.69021C18.373 4.75235 18.2781 4.78322 18.1822 4.77649C18.1076 4.77669 18.0332 4.76817 17.9605 4.7511C17.7144 4.69591 17.4939 4.55772 17.3348 4.35897C17.1756 4.16021 17.0872 3.91256 17.0839 3.65625C17.0749 3.27844 17.0839 2.90063 17.0839 2.51875H4.21756C4.21756 2.85188 4.21756 3.16469 4.21756 3.47648C4.21756 3.85226 4.28845 3.93656 4.65788 4.02086C4.75404 4.03453 4.84118 4.08577 4.90082 4.16369C4.96047 4.24162 4.98793 4.3401 4.97739 4.43828C4.97327 4.48718 4.95962 4.53477 4.93723 4.57825C4.91484 4.62173 4.88416 4.66024 4.84698 4.69154C4.8098 4.72283 4.76687 4.74627 4.72069 4.76051C4.67451 4.77474 4.62601 4.77949 4.578 4.77445C4.50308 4.7746 4.42838 4.76608 4.35534 4.74906C3.82016 4.62008 3.47569 4.17016 3.4667 3.58211C3.46071 3.22969 3.4667 2.87117 3.4667 2.49742H2.02291C1.20017 2.49742 0.751854 2.94937 0.749857 3.77812C0.749857 4.81947 0.749857 5.86049 0.749857 6.90117C0.749857 6.99054 0.756846 7.07992 0.761838 7.1825H1.09034C2.26387 7.1825 3.43708 7.1825 4.60995 7.1825C4.70157 7.17866 4.79332 7.18514 4.88354 7.2018C4.96702 7.21535 5.04232 7.26064 5.09422 7.32852C5.14612 7.39639 5.17075 7.48179 5.16311 7.56742C5.16891 7.65331 5.14229 7.73822 5.08867 7.80484C5.03505 7.87146 4.95848 7.91477 4.87455 7.92594C4.77545 7.94115 4.67514 7.94659 4.57501 7.94218H0.764834V7.94422ZM22.249 19.9936C22.1312 20.1073 22.0643 20.1693 22.0014 20.2343C20.8361 21.4185 19.6649 22.5977 18.5067 23.789C18.2988 24.013 18.0469 24.19 17.7674 24.3084C17.4879 24.4269 17.1869 24.4842 16.8842 24.4766C12.0669 24.4684 7.24925 24.4684 2.43129 24.4766C1.85417 24.4766 1.28005 24.4959 0.744864 24.0916C0.755427 24.201 0.772769 24.3095 0.796785 24.4166C0.948553 24.9397 1.3759 25.2362 1.97598 25.2362H20.9969C21.8017 25.2362 22.247 24.7843 22.248 23.9637C22.248 22.7368 22.248 21.5099 22.248 20.283L22.249 19.9936ZM21.6499 19.437C20.7892 19.437 19.8786 19.437 18.968 19.437C18.3799 19.437 18.0434 19.7895 18.0424 20.3877C18.0424 21.1829 18.0424 21.9781 18.0424 22.7734V23.1055L21.6499 19.437ZM4.21456 1.71844H5.17509C5.12017 1.40563 5.31488 1.04 4.98438 0.842974C4.89388 0.799335 4.79498 0.776695 4.69483 0.776695C4.59467 0.776695 4.49577 0.799335 4.40527 0.842974C4.07977 1.0461 4.25949 1.40766 4.21456 1.71844ZM18.7853 1.72758C18.7354 1.39953 18.9251 1.02476 18.5706 0.832808C18.4784 0.792978 18.3787 0.774679 18.2786 0.779249C18.1786 0.783819 18.0808 0.811142 17.9925 0.859215C17.687 1.07148 17.8737 1.42391 17.8287 1.72758H18.7853Z" fill="white"/>
<path d="M13.9962 16.9985C13.649 16.9985 13.3017 16.9985 12.9533 16.9985C12.4134 16.9985 12.0391 16.7579 12.0207 16.3598C11.9925 15.793 11.9937 15.2235 12.0207 14.6558C12.0379 14.2697 12.3962 14.0181 12.9189 14.0107C13.6441 13.9969 14.3705 13.996 15.0957 14.0107C15.6393 14.0218 15.9816 14.2964 15.9914 14.7083C16.0029 15.2386 16.0029 15.7685 15.9914 16.2981C15.9828 16.734 15.6233 16.9948 15.0417 16.9994C14.6858 17.0012 14.3386 16.9985 13.9962 16.9985ZM12.9496 14.7047V16.2944H15.0466V14.7047H12.9496Z" fill="white"/>
<path d="M3.97891 16.9988C3.62192 16.9988 3.26371 16.9988 2.9055 16.9988C2.39517 16.9914 2.02469 16.7362 2.01243 16.3539C1.99525 15.7937 1.99648 15.2336 2.01243 14.6734C2.00941 14.5862 2.03001 14.4994 2.07297 14.4183C2.11594 14.3372 2.18037 14.2635 2.26238 14.2017C2.34439 14.1398 2.44226 14.0911 2.55006 14.0585C2.65787 14.0259 2.77336 14.0101 2.88955 14.012C3.6256 13.996 4.36166 13.996 5.09771 14.012C5.21656 14.0109 5.33446 14.028 5.44429 14.0621C5.55412 14.0962 5.6536 14.1467 5.73673 14.2105C5.81985 14.2743 5.88489 14.3501 5.92793 14.4333C5.97096 14.5165 5.99109 14.6054 5.9871 14.6946C6.00305 15.2391 6.0055 15.7845 5.9871 16.329C5.97238 16.7362 5.59577 16.9932 5.05477 16.9988C4.6892 17.0015 4.33099 16.9988 3.97891 16.9988ZM2.94598 14.7085V16.2967H5.04864V14.7085H2.94598Z" fill="white"/>
<path d="M9.00583 16.9985C8.63737 16.9985 8.2689 16.9985 7.90044 16.9985C7.40301 16.9902 7.03086 16.7432 7.01612 16.371C6.99402 15.7961 6.99524 15.2193 7.01612 14.6444C7.01562 14.5609 7.03733 14.4782 7.07999 14.401C7.12264 14.3239 7.18539 14.254 7.26454 14.1953C7.3437 14.1366 7.43767 14.0903 7.54096 14.0592C7.64424 14.0281 7.75477 14.0128 7.86605 14.0142C8.62263 13.9957 9.38044 13.9948 10.137 14.0142C10.2509 14.0152 10.3633 14.0333 10.4678 14.0672C10.5723 14.1011 10.6668 14.1503 10.7457 14.2118C10.8247 14.2734 10.8866 14.3461 10.9278 14.4257C10.969 14.5053 10.9887 14.5903 10.9857 14.6757C11.0041 15.2285 11.0054 15.7813 10.9857 16.3341C10.971 16.7423 10.5964 16.9938 10.0498 16.9994C9.701 17.0012 9.35342 16.9985 9.00583 16.9985ZM7.93483 16.2964H10.0523V14.7144H7.93483V16.2964Z" fill="white"/>
<path d="M2.00461 10.9987C2.00461 10.63 1.99632 10.2613 2.00461 9.89266C2.01843 9.39003 2.26074 9.03242 2.63941 9.0189C3.20696 8.99309 3.77542 8.99432 4.34297 9.0189C4.42841 9.01756 4.51318 9.03915 4.59225 9.08237C4.67131 9.12559 4.74306 9.18955 4.80322 9.27049C4.86338 9.35142 4.91073 9.44767 4.94246 9.55349C4.97419 9.65932 4.98964 9.77257 4.98791 9.88652C5.00357 10.6337 5.00449 11.3821 4.98791 12.1281C4.97593 12.6418 4.70505 12.9883 4.31625 12.9883C3.77204 13.0039 3.22692 13.0039 2.68087 12.9883C2.26903 12.976 2.01566 12.6197 2.00369 12.0703C1.99539 11.7115 2.00369 11.3526 2.00369 10.995L2.00461 10.9987ZM2.70575 12.0494H4.28769V9.94428H2.70575V12.0494Z" fill="white"/>
<path d="M8.99486 12.9962C8.64742 12.9962 8.29876 13.0048 7.95132 12.9962C7.36816 12.979 7.0195 12.6388 7.00967 12.0518C6.9974 11.3456 6.99617 10.6395 7.00967 9.93334C7.02072 9.37702 7.35711 9.02947 7.91203 9.01474C8.63719 8.99509 9.36317 8.99509 10.09 9.01474C10.64 9.02947 10.9788 9.38315 10.9899 9.93947C11.0034 10.6444 11.0034 11.3518 10.9899 12.0567C10.9788 12.6364 10.6216 12.979 10.0372 12.9949C9.69097 13.0035 9.34353 12.9962 8.99486 12.9962ZM7.94518 12.0481H10.0495V9.94808H7.94518V12.0481Z" fill="white"/>
<path d="M20.9984 11.0027C20.9984 11.3513 20.9984 11.6987 20.9984 12.0461C20.9902 12.6267 20.7313 12.9814 20.2928 12.9912C19.7632 13.0023 19.2335 13.0035 18.7039 12.9912C18.2912 12.9802 18.0241 12.6414 18.0121 12.089C17.9964 11.3636 17.9955 10.6357 18.0121 9.91019C18.025 9.36027 18.2884 9.02516 18.7076 9.01166C19.2375 8.99611 19.7672 8.99611 20.2965 9.01166C20.7461 9.02516 20.9929 9.37992 20.9994 9.99367C21.0012 10.3288 20.9984 10.6651 20.9984 11.0027ZM20.2956 12.0583V9.95194H18.7131V12.0583H20.2956Z" fill="white"/>
<path d="M20.9969 16.0006C20.9969 16.3494 20.9969 16.697 20.9969 17.0445C20.9886 17.6156 20.7361 17.9779 20.3142 17.9889C19.7699 18.0037 19.2251 18.0037 18.6796 17.9889C18.2982 17.9779 18.0347 17.6561 18.0162 17.1501C17.9941 16.3838 17.995 15.615 18.0162 14.8499C18.0159 14.7381 18.0326 14.6274 18.0651 14.5244C18.0977 14.4215 18.1455 14.3283 18.2058 14.2505C18.266 14.1728 18.3374 14.112 18.4156 14.0719C18.4939 14.0318 18.5774 14.0132 18.6612 14.0172C19.2214 13.9943 19.7819 13.9943 20.3427 14.0172C20.7444 14.0332 20.9877 14.393 20.9987 14.9297C21.0024 15.2822 20.9969 15.6408 20.9969 16.0006ZM18.7082 14.9444V17.0494H20.2902V14.9444H18.7082Z" fill="white"/>
<path d="M15.9984 11.0125C15.9984 11.35 15.9984 11.6875 15.9984 12.025C15.9861 12.6288 15.6458 12.9822 15.0474 12.992C14.3512 13.0027 13.655 13.0027 12.9588 12.992C12.3764 12.9822 12.025 12.6374 12.0115 12.0495C11.9956 11.3549 11.9968 10.6591 12.0115 9.96323C12.0238 9.35943 12.3715 9.01949 12.9797 9.00967C13.6652 8.9974 14.3508 8.99617 15.0364 9.00967C15.6507 9.02071 15.9885 9.37785 15.9984 9.99882C16.002 10.3375 15.9984 10.675 15.9984 11.0125ZM15.0486 12.0557V9.95219H12.949V12.0557H15.0486Z" fill="white"/>
<path d="M3.98344 21.9982C3.6265 21.9982 3.26832 21.9982 2.9126 21.9982C2.79469 22.0012 2.67718 21.9862 2.56721 21.9541C2.45724 21.922 2.35708 21.8734 2.27279 21.8114C2.18851 21.7494 2.12185 21.6752 2.07686 21.5933C2.03187 21.5114 2.00948 21.4235 2.01104 21.3348C1.99632 20.7821 1.99632 20.2293 2.01104 19.6766C2.00731 19.5879 2.02778 19.4996 2.07118 19.4171C2.11458 19.3345 2.18 19.2596 2.26341 19.1967C2.34682 19.1339 2.44647 19.0846 2.55621 19.0518C2.66596 19.0189 2.78348 19.0033 2.90156 19.0059C3.62649 18.9976 4.35143 18.9985 5.07513 19.0059C5.19337 19.0026 5.31127 19.0174 5.42171 19.0493C5.53215 19.0812 5.63286 19.1295 5.71778 19.1914C5.8027 19.2533 5.87006 19.3274 5.91582 19.4094C5.96158 19.4913 5.98479 19.5794 5.98405 19.6683C6.00532 20.221 6.00532 20.7738 5.98405 21.3265C5.96811 21.7384 5.58172 21.9954 5.02361 22C4.67525 22 4.32935 21.9982 3.98344 21.9982ZM2.94082 21.2897H5.05305V19.7116H2.94082V21.2897Z" fill="white"/>
<path d="M8.99133 21.9986C8.64394 21.9986 8.29656 21.9986 7.94917 21.9986C7.40293 21.9931 7.02731 21.7405 7.01381 21.3357C6.9954 20.777 6.9954 20.2165 7.01381 19.6578C7.02854 19.2632 7.39802 19.0124 7.93076 19.0051C8.64517 18.9983 9.35958 18.9983 10.074 19.0051C10.1923 19.0012 10.3104 19.0154 10.4211 19.0469C10.5319 19.0784 10.6329 19.1265 10.7181 19.1882C10.8033 19.25 10.8709 19.3241 10.9167 19.4061C10.9626 19.4881 10.9858 19.5762 10.9848 19.6652C11.0044 20.2248 11.0057 20.7853 10.9848 21.344C10.9676 21.7359 10.5859 21.9894 10.0629 21.9977C9.70329 22.0023 9.34608 21.9986 8.99133 21.9986ZM10.047 21.2933V19.7085H7.93935V21.2933H10.047Z" fill="white"/>
<path d="M15.0609 21.3119V19.7122H12.9259C12.9259 19.8495 12.932 19.9886 12.9259 20.1213C12.9111 20.3628 12.7416 20.4973 12.4652 20.4955C12.1888 20.4936 12.0279 20.3582 12.0082 20.1149C12.0082 20.0992 12.0082 20.0845 12.0082 20.0688C11.9493 19.339 12.1876 18.9538 13.3828 19.0044C13.9246 19.0275 14.4675 19.0044 15.0105 19.0044C15.6247 19.0044 15.9932 19.2689 15.9932 19.7278C16.0023 20.2421 16.0023 20.7566 15.9932 21.2714C15.9859 21.7322 15.6247 21.9957 15.0105 21.9975C14.3152 21.9975 13.6187 22.0031 12.9222 21.9975C12.6883 22.0008 12.4621 21.935 12.2923 21.8144C12.1225 21.6937 12.0227 21.5278 12.0144 21.3525C12.0009 21.2751 12.0248 21.1967 12.0819 21.1314C12.1389 21.0661 12.2252 21.0184 12.3252 20.9968C12.5586 20.9415 12.7391 21.0088 12.8767 21.1617C12.9295 21.2198 13.0217 21.2972 13.0978 21.2981C13.7415 21.3165 14.3852 21.3119 15.0609 21.3119Z" fill="white"/>
</g>
<defs>
<clipPath id="clip0_216_2109">
<rect width="23" height="26" fill="white"/>
</clipPath>
</defs>
</svg>

<svg width="23" height="26" fill="none" xmlns="http://www.w3.org/2000/svg"><g clip-path="url(#clip0_216_2109)" fill="#fff"><path d="M21.433 26H1.563a4.594 4.594 0 0 1-.615-.256c-.652-.389-.949-.982-.948-1.75V3.74v-.204c.047-.719.388-1.263 1.015-1.573.304-.133.63-.207.96-.218.485-.036.975-.01 1.476-.01.008-.083.011-.167.01-.251C3.403.767 3.67.254 4.352 0h.65c.837.271.99.931.898 1.727h11.18V1.39c-.001-.185.015-.37.049-.552.115-.452.45-.687.86-.833h.648c.815.293.975.952.878 1.736h1.55c.498-.012.98.175 1.342.522.438.422.599.95.593 1.557-.006 6.703-.006 13.404 0 20.103 0 .093 0 .186-.006.278a1.902 1.902 0 0 1-.381 1.052 1.852 1.852 0 0 1-.901.645c-.093.035-.185.07-.279.102zM.765 7.944c-.007.102-.014.157-.014.216v14.344c0 .748.47 1.21 1.211 1.21h14.379c.613 0 .95-.348.95-.98v-2.31c0-1.068.662-1.744 1.714-1.75h2.222c.704 0 1.02-.319 1.02-1.037V7.944H6.571a2.103 2.103 0 0 1-.349-.016.334.334 0 0 1-.218-.117.345.345 0 0 1-.081-.237.343.343 0 0 1 .068-.24.333.333 0 0 1 .212-.128c.114-.02.23-.027.347-.021h15.682c.005-.102.013-.181.013-.255V3.756c0-.796-.458-1.255-1.247-1.256h-2.92c-.08 0-.158.008-.252.012v.969c0 .393.05.453.435.543a.378.378 0 0 1 .242.144.39.39 0 0 1 .079.274.384.384 0 0 1-.135.248.372.372 0 0 1-.265.086 1.114 1.114 0 0 1-.847-.418 1.148 1.148 0 0 1-.251-.702c-.01-.378 0-.755 0-1.137H4.218v.957c0 .376.07.46.44.545a.372.372 0 0 1 .243.143c.06.078.087.176.076.274a.374.374 0 0 1-.13.254.362.362 0 0 1-.269.082.972.972 0 0 1-.223-.025c-.535-.129-.88-.579-.888-1.167-.006-.352 0-.71 0-1.085H2.023C1.2 2.497.752 2.95.75 3.778v3.123c0 .09.007.179.012.282H4.61c.092-.004.183.002.274.019a.332.332 0 0 1 .21.127.343.343 0 0 1 .07.238.342.342 0 0 1-.075.238.331.331 0 0 1-.214.12c-.1.016-.2.022-.3.017H.765v.002zm21.484 12.05c-.118.113-.185.175-.248.24-1.165 1.184-2.336 2.364-3.494 3.555-.208.224-.46.401-.74.52-.28.118-.58.175-.883.168-4.817-.009-9.635-.009-14.453 0-.577 0-1.151.019-1.686-.385.01.109.028.218.052.325.152.523.579.82 1.179.82h19.02c.806 0 1.251-.453 1.252-1.273v-3.681l.001-.29zm-.6-.557h-2.681c-.588 0-.925.352-.926.95v2.718l3.608-3.668zM4.216 1.718h.96c-.055-.312.14-.678-.19-.875a.666.666 0 0 0-.58 0c-.325.203-.146.565-.19.875zm14.57.01c-.05-.328.14-.703-.214-.895a.66.66 0 0 0-.579.026c-.305.212-.118.565-.163.869h.956z"/><path d="M13.996 16.998h-1.043c-.54 0-.914-.24-.932-.638a17.544 17.544 0 0 1 0-1.704c.017-.386.375-.638.898-.645a55.426 55.426 0 0 1 2.177 0c.543.01.886.285.895.697.012.53.012 1.06 0 1.59-.008.436-.368.697-.95.701-.355.002-.702 0-1.045 0zm-1.046-2.293v1.59h2.097v-1.59H12.95zM3.979 16.999H2.905c-.51-.008-.88-.263-.893-.645a28.42 28.42 0 0 1 0-1.68.505.505 0 0 1 .061-.256.663.663 0 0 1 .19-.216.92.92 0 0 1 .287-.143c.108-.033.223-.049.34-.047a50.797 50.797 0 0 1 2.208 0c.119-.001.236.016.346.05.11.034.21.085.293.149.083.063.148.14.19.222a.516.516 0 0 1 .06.262c.016.544.018 1.09 0 1.634-.015.407-.391.664-.932.67-.366.003-.724 0-1.076 0zm-1.033-2.29v1.588h2.103v-1.588H2.946zM9.006 16.998H7.9c-.497-.008-.87-.255-.884-.627a23.128 23.128 0 0 1 0-1.727c0-.083.021-.166.064-.243a.652.652 0 0 1 .185-.206.9.9 0 0 1 .276-.136c.103-.03.214-.046.325-.045.757-.018 1.514-.02 2.271 0 .114.001.226.02.33.053a.907.907 0 0 1 .279.145c.079.061.14.134.182.214.041.08.06.164.058.25.018.553.02 1.105 0 1.658-.015.408-.39.66-.936.665-.349.002-.697 0-1.044 0zm-1.071-.702h2.117v-1.582H7.935v1.582zM2.005 10.999c0-.369-.009-.738 0-1.106.013-.503.256-.86.634-.874a19.207 19.207 0 0 1 1.704 0c.085-.001.17.02.25.063a.66.66 0 0 1 .21.188c.06.081.108.178.14.283.031.106.047.22.045.334.016.747.016 1.495 0 2.241-.012.514-.283.86-.672.86a28.58 28.58 0 0 1-1.635 0c-.412-.012-.665-.368-.677-.918-.009-.359 0-.717 0-1.075v.004zm.7 1.05h1.583V9.944H2.706v2.105zM8.995 12.996c-.348 0-.696.009-1.044 0-.583-.017-.931-.357-.941-.944a58.055 58.055 0 0 1 0-2.119c.01-.556.347-.904.902-.918.725-.02 1.451-.02 2.178 0 .55.014.889.368.9.924.013.705.013 1.413 0 2.118-.011.58-.368.922-.953.938-.346.009-.693.001-1.042.001zm-1.05-.948h2.104v-2.1H7.946v2.1zM20.998 11.003v1.043c-.008.58-.267.935-.705.945-.53.011-1.06.013-1.59 0-.412-.01-.679-.35-.69-.902a48.997 48.997 0 0 1 0-2.179c.012-.55.275-.885.695-.898.53-.016 1.06-.016 1.589 0 .45.013.696.368.702.982.002.335 0 .671 0 1.009zm-.702 1.055V9.952h-1.583v2.106h1.583zM20.997 16v1.044c-.008.572-.26.934-.683.945-.544.015-1.089.015-1.634 0-.382-.011-.645-.333-.664-.839a40.739 40.739 0 0 1 0-2.3c0-.112.017-.223.05-.326a.882.882 0 0 1 .14-.273.635.635 0 0 1 .21-.18.485.485 0 0 1 .245-.054c.56-.023 1.12-.023 1.682 0 .401.016.645.376.656.913.003.352-.002.71-.002 1.07zm-2.289-1.056v2.105h1.582v-2.105h-1.582zM15.998 11.012v1.013c-.012.604-.352.957-.95.967-.697.01-1.393.01-2.09 0-.582-.01-.933-.355-.947-.943a47.419 47.419 0 0 1 0-2.086c.013-.604.36-.944.969-.953a54.72 54.72 0 0 1 2.056 0c.615.01.953.368.962.989.004.338 0 .676 0 1.013zm-.95 1.044V9.952H12.95v2.104h2.1zM3.983 21.998h-1.07a1.135 1.135 0 0 1-.346-.044.943.943 0 0 1-.294-.143.681.681 0 0 1-.196-.218.516.516 0 0 1-.066-.258 31.138 31.138 0 0 1 0-1.658.509.509 0 0 1 .06-.26.669.669 0 0 1 .192-.22.93.93 0 0 1 .293-.145c.11-.033.227-.049.346-.046.724-.008 1.45-.008 2.173 0a1.14 1.14 0 0 1 .347.043.95.95 0 0 1 .296.142.688.688 0 0 1 .198.218.52.52 0 0 1 .068.26c.021.552.021 1.105 0 1.657-.016.412-.402.67-.96.674l-1.04-.002zm-1.042-.708h2.112v-1.578H2.941v1.578zM8.991 21.999H7.95c-.546-.006-.922-.258-.935-.663a25.494 25.494 0 0 1 0-1.678c.015-.395.384-.646.917-.653.714-.007 1.429-.007 2.143 0 .118-.004.236.01.347.042.11.031.212.08.297.141a.686.686 0 0 1 .199.218c.046.082.069.17.068.26.02.559.02 1.12 0 1.678-.017.392-.4.645-.922.654-.36.004-.717 0-1.072 0zm1.056-.706V19.71H7.939v1.584h2.108zM15.06 21.312v-1.6h-2.134c0 .137.006.277 0 .41-.015.24-.184.375-.46.373-.277-.001-.438-.137-.458-.38v-.046c-.059-.73.18-1.115 1.375-1.065.542.023 1.085 0 1.628 0 .614 0 .982.265.982.724.01.514.01 1.029 0 1.543-.007.461-.368.725-.982.726-.696 0-1.392.006-2.089 0a1.073 1.073 0 0 1-.63-.183.612.612 0 0 1-.278-.462.264.264 0 0 1 .068-.22.447.447 0 0 1 .243-.135.529.529 0 0 1 .552.165c.053.058.145.135.22.136.645.019 1.288.014 1.964.014z"/></g><defs><clipPath id="clip0_216_2109"><path fill="#fff" d="M0 0h23v26H0z"/></clipPath></defs></svg>
